assets/svg/illustrations/calendar.svg

<svg width="128" height="126" viewBox="0 0 128 126" fill="none" xmlns="http://www.w3.org/2000/svg">
<g clip-path="url(#clip0)">
<path opacity="0.3" d="M2.6 105.3L42.8 -3.20009C43.3 -4.60009 44.9 -5.30009 46.3 -4.80009L139 29.5999C140.4 30.0999 141.1 31.6999 140.6 33.0999L100.5 141.5C100 142.9 98.4 143.6 97 143.1L4.2 108.8C2.8 108.2 2.1 106.7 2.6 105.3Z" fill="#BDC5D1"/>
<path d="M0.599998 100.4L39.8 -5.40004C40.3 -6.80004 41.9 -7.50004 43.3 -7.00004L133.7 26.4999C135.1 26.9999 135.8 28.5999 135.3 29.9999L96.2 135.8C95.7 137.2 94.1 137.9 92.7 137.4L2.2 103.9C0.799998 103.4 0.0999975 101.8 0.599998 100.4Z" fill="white"/>
<path opacity="0.3" d="M41.9037 6.70667L41.1746 8.67606L65.3698 17.6338L66.0989 15.6645L41.9037 6.70667Z" fill="#BDC5D1"/>
<path opacity="0.3" d="M40.129 11.4707L39.3998 13.4401L80.663 28.7169L81.3922 26.7475L40.129 11.4707Z" fill="#BDC5D1"/>
<path d="M110.52 30.1743L105.069 44.8978L122.231 51.2515L127.682 36.5281L110.52 30.1743Z" fill="white"/>
<path d="M127.6 36.5L122.2 51.2L105.2 45L110.6 30.3L127.6 36.5ZM127.8 36.4L110.6 30L105 44.9L122.3 51.3L127.8 36.4Z" fill="#E7EAF3"/>
<path d="M93.2432 23.7988L87.7921 38.5223L104.954 44.8761L110.405 30.1526L93.2432 23.7988Z" fill="white"/>
<path d="M110.3 30.1L104.9 44.8L87.9 38.6L93.3 23.9L110.3 30.1ZM110.6 30L93.3 23.6L87.8 38.5L105.1 44.9L110.6 30Z" fill="#E7EAF3"/>
<path d="M105.066 45.2307L99.6151 59.9541L116.777 66.3079L122.228 51.5844L105.066 45.2307Z" fill="white"/>
<path d="M122 51.3999L116.6 66.0999L99.6 59.8999L105 45.1999L122 51.3999ZM122.3 51.2999L105 44.8999L99.4 59.8999L116.7 66.2999L122.3 51.2999Z" fill="#E7EAF3"/>
<path d="M87.7016 38.7599L82.2505 53.4833L99.4123 59.8371L104.863 45.1136L87.7016 38.7599Z" fill="white"/>
<path d="M104.8 45.1L99.4 59.8L82.4 53.6L87.8 38.9L104.8 45.1ZM105 44.9L87.7 38.5L82.2 53.4L99.5 59.8L105 44.9Z" fill="#E7EAF3"/>
<path d="M70.4307 32.3237L64.9796 47.0471L82.1414 53.4009L87.5924 38.6774L70.4307 32.3237Z" fill="white"/>
<path d="M87.5 38.7L82.1 53.4L65.1 47.2L70.5 32.5L87.5 38.7ZM87.7 38.5999L70.4 32.2L64.9 47.0999L82.2 53.5L87.7 38.5999Z" fill="#E7EAF3"/>
<path d="M53.1599 25.8876L47.7089 40.6111L64.8706 46.9648L70.3216 32.2414L53.1599 25.8876Z" fill="white"/>
<path d="M70.1 32.1999L64.7 46.8999L47.7 40.6999L53.1 25.9999L70.1 32.1999ZM70.4 32.1999L53.1 25.7999L47.6 40.6999L64.9 47.0999L70.4 32.1999Z" fill="#E7EAF3"/>
<path d="M35.7891 19.4773L30.3381 34.2008L47.4998 40.5545L52.9509 25.8311L35.7891 19.4773Z" fill="white"/>
<path d="M52.8 25.7999L47.4 40.4999L30.4 34.2999L35.8 19.5999L52.8 25.7999ZM53.1 25.6999L35.8 19.2999L30.2 34.2999L47.5 40.6999L53.1 25.6999Z" fill="#E7EAF3"/>
<path d="M99.4985 60.0917L94.0475 74.8151L111.209 81.1689L116.66 66.4454L99.4985 60.0917Z" fill="white"/>
<path d="M116.5 66.4L111.1 81.1L94.1 74.9L99.5 60.2L116.5 66.4ZM116.7 66.4L99.4 60L93.9 74.9L111.2 81.3L116.7 66.4Z" fill="#E7EAF3"/>
<path d="M82.2278 53.6554L76.7767 68.3789L93.9385 74.7326L99.3895 60.0092L82.2278 53.6554Z" fill="white"/>
<path d="M99.3 60L93.9 74.7L76.9 68.5L82.3 53.8L99.3 60ZM99.4 59.9L82.1 53.5L76.6 68.4L93.9 74.8L99.4 59.9Z" fill="#E7EAF3"/>
<path d="M64.8285 47.2783L59.3774 62.0018L76.5392 68.3556L81.9902 53.6321L64.8285 47.2783Z" fill="white"/>
<path d="M81.9 53.6L76.5 68.3L59.5 62.1L64.9 47.4L81.9 53.6ZM82.2 53.5L64.9 47.1L59.4 62L76.7 68.4L82.2 53.5Z" fill="#E7EAF3"/>
<path d="M47.612 40.9091L42.1609 55.6326L59.3227 61.9863L64.7737 47.2629L47.612 40.9091Z" fill="white"/>
<path d="M64.6 47.2L59.2 61.9L42.2 55.7L47.6 41L64.6 47.2ZM64.9 47.0999L47.6 40.7L42 55.7L59.3 62.0999L64.9 47.0999Z" fill="#E7EAF3"/>
<path d="M30.3413 34.4729L24.8903 49.1963L42.052 55.5501L47.503 40.8266L30.3413 34.4729Z" fill="white"/>
<path d="M47.3 40.7999L41.9 55.4999L24.9 49.2999L30.3 34.5999L47.3 40.7999ZM47.5 40.6999L30.2 34.3999L24.7 49.2999L42 55.6999L47.5 40.6999Z" fill="#E7EAF3"/>
<path d="M93.8964 75.0464L88.4453 89.7698L105.607 96.1236L111.058 81.4001L93.8964 75.0464Z" fill="white"/>
<path d="M111 81.3999L105.6 95.9999L88.6 89.7999L94 75.0999L111 81.3999ZM111.2 81.2999L93.9 74.8999L88.4 89.7999L105.7 96.1999L111.2 81.2999Z" fill="#E7EAF3"/>
<path d="M76.6861 68.6165L71.235 83.34L88.3968 89.6937L93.8478 74.9703L76.6861 68.6165Z" fill="white"/>
<path d="M93.6 74.9L88.2 89.6L71.2 83.4L76.6 68.7L93.6 74.9ZM93.9 74.9L76.6 68.5L71 83.5L88.3 89.9L93.9 74.9Z" fill="#E7EAF3"/>
<path d="M59.3744 62.3347L53.9233 77.0581L71.0851 83.4119L76.5361 68.6884L59.3744 62.3347Z" fill="white"/>
<path d="M76.4 68.6L71 83.3L54 77.1L59.4 62.4L76.4 68.6ZM76.6 68.4L59.4 62L53.8 77L71.2 83.4L76.6 68.4Z" fill="#E7EAF3"/>
<path d="M42.0098 55.8639L36.5588 70.5873L53.7205 76.9411L59.1716 62.2176L42.0098 55.8639Z" fill="white"/>
<path d="M59.1 62.2L53.7 76.9L36.7 70.6999L42.1 56L59.1 62.2ZM59.4 62.0999L42 55.7L36.5 70.5999L53.7 77L59.4 62.0999Z" fill="#E7EAF3"/>
<path d="M24.739 49.4276L19.288 64.1511L36.4497 70.5048L41.9007 55.7814L24.739 49.4276Z" fill="white"/>
<path d="M41.8 55.7999L36.4 70.4999L19.4 64.1999L24.8 49.4999L41.8 55.7999ZM42 55.6999L24.7 49.2999L19.2 64.1999L36.5 70.5999L42 55.6999Z" fill="#E7EAF3"/>
<path d="M88.4666 90.0575L83.0156 104.781L100.177 111.135L105.628 96.4113L88.4666 90.0575Z" fill="white"/>
<path d="M105.5 96.2999L100.1 111L83.1 104.8L88.5 90.0999L105.5 96.2999ZM105.7 96.1999L88.4 89.7999L82.9 104.7L100.2 111.1L105.7 96.1999Z" fill="#E7EAF3"/>
<path d="M71.102 83.5867L65.6509 98.3101L82.8127 104.664L88.2637 89.9404L71.102 83.5867Z" fill="white"/>
<path d="M88.1 90L82.7 104.7L65.7 98.5L71.1 83.8L88.1 90ZM88.4 89.8L71 83.5L65.5 98.4L82.8 104.8L88.4 89.8Z" fill="#E7EAF3"/>
<path d="M53.8249 77.2111L48.3738 91.9346L65.5356 98.2883L70.9866 83.5649L53.8249 77.2111Z" fill="white"/>
<path d="M70.8 83.5L65.4 98.2L48.4 92L53.8 77.3L70.8 83.5ZM71.1 83.5L53.7 77L48.2 92L65.5 98.4L71.1 83.5Z" fill="#E7EAF3"/>
<path d="M36.5541 70.775L31.103 85.4984L48.2648 91.8522L53.7158 77.1287L36.5541 70.775Z" fill="white"/>
<path d="M53.6 77.1L48.2 91.8L31.2 85.5L36.6 70.8L53.6 77.1ZM53.7 77L36.4 70.6L31 85.5L48.2 92L53.7 77Z" fill="#E7EAF3"/>
<path d="M19.1896 64.3042L13.7385 79.0277L30.9003 85.3815L36.3513 70.658L19.1896 64.3042Z" fill="white"/>
<path d="M36.2 70.7L30.8 85.4L13.8 79.2L19.2 64.5L36.2 70.7ZM36.5 70.6L19.2 64.2L13.7 79.1L31 85.5L36.5 70.6Z" fill="#E7EAF3"/>
<path d="M82.899 104.919L77.4479 119.642L94.6097 125.996L100.061 111.272L82.899 104.919Z" fill="white"/>
<path d="M99.9 111.3L94.5 126L77.6 119.7L83 105L99.9 111.3ZM100.2 111.2L82.9 104.8L77.3 119.7L94.6 126.1L100.2 111.2Z" fill="#E7EAF3"/>
<path d="M65.5872 98.6367L60.1362 113.36L77.2979 119.714L82.749 104.991L65.5872 98.6367Z" fill="white"/>
<path d="M82.6 104.9L77.2 119.6L60.2 113.4L65.6 98.6999L82.6 104.9ZM82.9 104.8L65.5 98.3999L60 113.3L77.3 119.7L82.9 104.8Z" fill="#E7EAF3"/>
<path d="M48.2227 92.1659L42.7717 106.889L59.9334 113.243L65.3845 98.5196L48.2227 92.1659Z" fill="white"/>
<path d="M65.3 98.5L59.9 113.2L42.9 107L48.3 92.3L65.3 98.5ZM65.5 98.4L48.2 92L42.7 106.9L60 113.3L65.5 98.4Z" fill="#E7EAF3"/>
<path d="M30.9518 85.7296L25.5007 100.453L42.6625 106.807L48.1135 92.0833L30.9518 85.7296Z" fill="white"/>
<path d="M48 92L42.6 106.7L25.6 100.5L31 85.8L48 92ZM48.2 92L31 85.5L25.5 100.4L42.8 106.8L48.2 92Z" fill="#E7EAF3"/>
<path d="M13.7354 79.3605L8.28436 94.0839L25.4461 100.438L30.8971 85.7142L13.7354 79.3605Z" fill="white"/>
<path d="M30.7 85.6L25.3 100.3L8.20001 94L13.6 79.3L30.7 85.6ZM31 85.5L13.7 79.1L8.20001 94L25.5 100.4L31 85.5Z" fill="#E7EAF3"/>
<path d="M37.3 23.7C37.9075 23.7 38.4 23.2075 38.4 22.6C38.4 21.9925 37.9075 21.5 37.3 21.5C36.6925 21.5 36.2 21.9925 36.2 22.6C36.2 23.2075 36.6925 23.7 37.3 23.7Z" fill="#DE4437"/>
<path d="M39.7 24.5999C40.3075 24.5999 40.8 24.1074 40.8 23.4999C40.8 22.8924 40.3075 22.3999 39.7 22.3999C39.0925 22.3999 38.6 22.8924 38.6 23.4999C38.6 24.1074 39.0925 24.5999 39.7 24.5999Z" fill="#FFC107"/>
<path d="M66.4 50.9C67.0075 50.9 67.5 50.4074 67.5 49.7999C67.5 49.1924 67.0075 48.7 66.4 48.7C65.7925 48.7 65.3 49.1924 65.3 49.7999C65.3 50.4074 65.7925 50.9 66.4 50.9Z" fill="#377dff"/>
<path d="M68.9 51.8C69.5075 51.8 70 51.3075 70 50.7C70 50.0925 69.5075 49.6 68.9 49.6C68.2925 49.6 67.8 50.0925 67.8 50.7C67.8 51.3075 68.2925 51.8 68.9 51.8Z" fill="#377dff"/>
<path d="M106.8 49.4C107.408 49.4 107.9 48.9074 107.9 48.2999C107.9 47.6924 107.408 47.2 106.8 47.2C106.193 47.2 105.7 47.6924 105.7 48.2999C105.7 48.9074 106.193 49.4 106.8 49.4Z" fill="#377dff"/>
<path d="M109.2 50.3C109.808 50.3 110.3 49.8075 110.3 49.2C110.3 48.5925 109.808 48.1 109.2 48.1C108.592 48.1 108.1 48.5925 108.1 49.2C108.1 49.8075 108.592 50.3 109.2 50.3Z" fill="#377dff"/>
<path d="M111.6 51.2C112.208 51.2 112.7 50.7075 112.7 50.1C112.7 49.4925 112.208 49 111.6 49C110.992 49 110.5 49.4925 110.5 50.1C110.5 50.7075 110.992 51.2 111.6 51.2Z" fill="#377dff"/>
<path d="M114.1 52.0999C114.708 52.0999 115.2 51.6074 115.2 50.9999C115.2 50.3924 114.708 49.8999 114.1 49.8999C113.492 49.8999 113 50.3924 113 50.9999C113 51.6074 113.492 52.0999 114.1 52.0999Z" fill="#377dff"/>
<path d="M95.5 79.5999C96.1075 79.5999 96.6 79.1074 96.6 78.4999C96.6 77.8924 96.1075 77.3999 95.5 77.3999C94.8925 77.3999 94.4 77.8924 94.4 78.4999C94.4 79.1074 94.8925 79.5999 95.5 79.5999Z" fill="#377dff"/>
<path d="M98 80.4999C98.6075 80.4999 99.1 80.0074 99.1 79.3999C99.1 78.7924 98.6075 78.2999 98 78.2999C97.3925 78.2999 96.9 78.7924 96.9 79.3999C96.9 80.0074 97.3925 80.4999 98 80.4999Z" fill="#377dff"/>
<path d="M100.4 81.4C101.007 81.4 101.5 80.9075 101.5 80.3C101.5 79.6925 101.007 79.2 100.4 79.2C99.7925 79.2 99.3 79.6925 99.3 80.3C99.3 80.9075 99.7925 81.4 100.4 81.4Z" fill="#377dff"/>
<path d="M102.9 82.3C103.507 82.3 104 81.8075 104 81.2C104 80.5925 103.507 80.1 102.9 80.1C102.292 80.1 101.8 80.5925 101.8 81.2C101.8 81.8075 102.292 82.3 102.9 82.3Z" fill="#377dff"/>
<path d="M49.1 44.4999C49.7075 44.4999 50.2 44.0074 50.2 43.3999C50.2 42.7924 49.7075 42.2999 49.1 42.2999C48.4925 42.2999 48 42.7924 48 43.3999C48 44.0074 48.4925 44.4999 49.1 44.4999Z" fill="#FFC107"/>
<path d="M26.4 52.9C27.0075 52.9 27.5 52.4074 27.5 51.7999C27.5 51.1924 27.0075 50.7 26.4 50.7C25.7925 50.7 25.3 51.1924 25.3 51.7999C25.3 52.4074 25.7925 52.9 26.4 52.9Z" fill="#DE4437"/>
<path d="M32.5 89.0999C33.1075 89.0999 33.6 88.6074 33.6 87.9999C33.6 87.3924 33.1075 86.8999 32.5 86.8999C31.8925 86.8999 31.4 87.3924 31.4 87.9999C31.4 88.6074 31.8925 89.0999 32.5 89.0999Z" fill="#00C9A7"/>
</g>
<defs>
<clipPath id="clip0">
<rect width="128" height="126" fill="white"/>
</clipPath>
</defs>
</svg>

<?xml version="1.0" encoding="utf-8"?>
<!-- Generator: Adobe Illustrator 24.0.1, SVG Export Plug-In . SVG Version: 6.00 Build 0)  -->
<svg version="1.1" id="Layer_1" xmlns="http://www.w3.org/2000/svg" xmlns:xlink="http://www.w3.org/1999/xlink" x="0px" y="0px"
	 viewBox="0 0 128 126" style="enable-background:new 0 0 128 126;" xml:space="preserve">
<style type="text/css">
	.st0{opacity:0.3;fill:#BDC5D1;}
	.st1{fill:#FFFFFF;}
	.st2{fill:#E7EAF3;}
	.st3{fill:#DE4437;}
	.st4{fill:#FFC107;}
	.st5{fill:#377DFF;}
	.st6{fill:#00C9A7;}
</style>
<path class="st0" d="M2.6,105.3L42.8-3.2c0.5-1.4,2.1-2.1,3.5-1.6L139,29.6c1.4,0.5,2.1,2.1,1.6,3.5l-40.1,108.4
	c-0.5,1.4-2.1,2.1-3.5,1.6L4.2,108.8C2.8,108.2,2.1,106.7,2.6,105.3z"/>
<path class="st1" d="M0.6,100.4L39.8-5.4c0.5-1.4,2.1-2.1,3.5-1.6l90.4,33.5c1.4,0.5,2.1,2.1,1.6,3.5L96.2,135.8
	c-0.5,1.4-2.1,2.1-3.5,1.6L2.2,103.9C0.8,103.4,0.1,101.8,0.6,100.4z"/>
<rect x="52.6" y="-0.7" transform="matrix(0.3472 -0.9378 0.9378 0.3472 23.5683 58.2474)" class="st0" width="2.1" height="25.8"/>
<rect x="59.3" y="-1.9" transform="matrix(0.3472 -0.9378 0.9378 0.3472 20.5927 69.7113)" class="st0" width="2.1" height="44"/>
<rect x="108.5" y="31.5" transform="matrix(0.3472 -0.9378 0.9378 0.3472 37.8573 135.7124)" class="st1" width="15.7" height="18.3"/>
<path class="st2" d="M127.6,36.5l-5.4,14.7l-17-6.2l5.4-14.7L127.6,36.5 M127.8,36.4L110.6,30L105,44.9l17.3,6.4L127.8,36.4z"/>
<rect x="91.2" y="25.2" transform="matrix(0.3472 -0.9378 0.9378 0.3472 32.4949 115.3003)" class="st1" width="15.7" height="18.3"/>
<path class="st2" d="M110.3,30.1l-5.4,14.7l-17-6.2l5.4-14.7L110.3,30.1 M110.6,30l-17.3-6.4l-5.5,14.9l17.3,6.4L110.6,30z"/>
<rect x="103" y="46.6" transform="matrix(0.3472 -0.9378 0.9378 0.3472 20.152 140.3681)" class="st1" width="15.7" height="18.3"/>
<path class="st2" d="M122,51.4l-5.4,14.7l-17-6.2l5.4-14.7L122,51.4 M122.3,51.3L105,44.9l-5.6,15l17.3,6.4L122.3,51.3z"/>
<rect x="85.7" y="40.1" transform="matrix(0.3472 -0.9378 0.9378 0.3472 14.8897 119.9301)" class="st1" width="15.7" height="18.3"/>
<path class="st2" d="M104.8,45.1l-5.4,14.7l-17-6.2l5.4-14.7L104.8,45.1 M105,44.9l-17.3-6.4l-5.5,14.9l17.3,6.4L105,44.9z"/>
<rect x="68.4" y="33.7" transform="matrix(0.3472 -0.9378 0.9378 0.3472 9.6273 99.4921)" class="st1" width="15.7" height="18.3"/>
<path class="st2" d="M87.5,38.7l-5.4,14.7l-17-6.2l5.4-14.7L87.5,38.7 M87.7,38.6l-17.3-6.4l-5.5,14.9l17.3,6.4L87.7,38.6z"/>
<rect x="51.1" y="27.3" transform="matrix(0.3472 -0.9378 0.9378 0.3472 4.365 79.0541)" class="st1" width="15.7" height="18.3"/>
<path class="st2" d="M70.1,32.2l-5.4,14.7l-17-6.2L53.1,26L70.1,32.2 M70.4,32.2l-17.3-6.4l-5.5,14.9l17.3,6.4L70.4,32.2z"/>
<rect x="33.8" y="20.9" transform="matrix(0.3472 -0.9378 0.9378 0.3472 -0.9973 58.642)" class="st1" width="15.7" height="18.3"/>
<path class="st2" d="M52.8,25.8l-5.4,14.7l-17-6.2l5.4-14.7L52.8,25.8 M53.1,25.7l-17.3-6.4l-5.6,15l17.3,6.4L53.1,25.7z"/>
<rect x="97.5" y="61.5" transform="matrix(0.3472 -0.9378 0.9378 0.3472 2.5208 144.8978)" class="st1" width="15.7" height="18.3"/>
<path class="st2" d="M116.5,66.4l-5.4,14.7l-17-6.2l5.4-14.7L116.5,66.4 M116.7,66.4l-17.3-6.4l-5.5,14.9l17.3,6.4L116.7,66.4z"/>
<rect x="80.2" y="55.1" transform="matrix(0.3472 -0.9378 0.9378 0.3472 -2.7415 124.4598)" class="st1" width="15.7" height="18.3"/>
<path class="st2" d="M99.3,60l-5.4,14.7l-17-6.2l5.4-14.7L99.3,60 M99.4,59.9l-17.3-6.4l-5.5,14.9l17.3,6.4L99.4,59.9z"/>
<rect x="62.8" y="48.6" transform="matrix(0.3472 -0.9378 0.9378 0.3472 -8.0038 104.0218)" class="st1" width="15.7" height="18.3"/>
<path class="st2" d="M81.9,53.6l-5.4,14.7l-17-6.2l5.4-14.7L81.9,53.6 M82.2,53.5l-17.3-6.4L59.4,62l17.3,6.4L82.2,53.5z"/>
<rect x="45.6" y="42.3" transform="matrix(0.3472 -0.9378 0.9378 0.3472 -13.3403 83.7097)" class="st1" width="15.7" height="18.3"/>
<path class="st2" d="M64.6,47.2l-5.4,14.7l-17-6.2l5.4-14.7L64.6,47.2 M64.9,47.1l-17.3-6.4l-5.6,15l17.3,6.4L64.9,47.1z"/>
<rect x="28.3" y="35.9" transform="matrix(0.3472 -0.9378 0.9378 0.3472 -18.6025 63.2717)" class="st1" width="15.7" height="18.3"/>
<path class="st2" d="M47.3,40.8l-5.4,14.7l-17-6.2l5.4-14.7L47.3,40.8 M47.5,40.7l-17.3-6.3l-5.5,14.9L42,55.7L47.5,40.7z"/>
<rect x="91.9" y="76.4" transform="matrix(0.3472 -0.9378 0.9378 0.3472 -15.1103 149.4276)" class="st1" width="15.7" height="18.3"/>
<path class="st2" d="M111,81.4L105.6,96l-17-6.2L94,75.1L111,81.4 M111.2,81.3l-17.3-6.4l-5.5,14.9l17.3,6.4L111.2,81.3z"/>
<rect x="74.7" y="70" transform="matrix(0.3472 -0.9378 0.9378 0.3472 -20.3468 129.0896)" class="st1" width="15.7" height="18.3"/>
<path class="st2" d="M93.6,74.9l-5.4,14.7l-17-6.2l5.4-14.7L93.6,74.9 M93.9,74.9l-17.3-6.4l-5.6,15l17.3,6.4L93.9,74.9z"/>
<rect x="57.3" y="63.7" transform="matrix(0.3472 -0.9378 0.9378 0.3472 -25.7091 108.6775)" class="st1" width="15.7" height="18.3"/>
<path class="st2" d="M76.4,68.6l-5.4,14.7l-17-6.2l5.4-14.7L76.4,68.6 M76.6,68.4L59.4,62l-5.6,15l17.4,6.4L76.6,68.4z"/>
<rect x="40" y="57.2" transform="matrix(0.3472 -0.9378 0.9378 0.3472 -30.9714 88.2395)" class="st1" width="15.7" height="18.3"/>
<path class="st2" d="M59.1,62.2l-5.4,14.7l-17-6.2L42.1,56L59.1,62.2 M59.4,62.1L42,55.7l-5.5,14.9L53.7,77L59.4,62.1z"/>
<rect x="22.7" y="50.8" transform="matrix(0.3472 -0.9378 0.9378 0.3472 -36.2337 67.8015)" class="st1" width="15.7" height="18.3"/>
<path class="st2" d="M41.8,55.8l-5.4,14.7l-17-6.3l5.4-14.7L41.8,55.8 M42,55.7l-17.3-6.4l-5.5,14.9l17.3,6.4L42,55.7z"/>
<rect x="86.4" y="91.4" transform="matrix(0.3472 -0.9378 0.9378 0.3472 -32.6974 154.0729)" class="st1" width="15.7" height="18.3"/>
<path class="st2" d="M105.5,96.3l-5.4,14.7l-17-6.2l5.4-14.7L105.5,96.3 M105.7,96.2l-17.3-6.4l-5.5,14.9l17.3,6.4L105.7,96.2z"/>
<rect x="69.1" y="84.9" transform="matrix(0.3472 -0.9378 0.9378 0.3472 -37.9598 133.6348)" class="st1" width="15.7" height="18.3"/>
<path class="st2" d="M88.1,90l-5.4,14.7l-17-6.2l5.4-14.7L88.1,90 M88.4,89.8L71,83.5l-5.5,14.9l17.3,6.4L88.4,89.8z"/>
<rect x="51.8" y="78.6" transform="matrix(0.3472 -0.9378 0.9378 0.3472 -43.3222 113.2227)" class="st1" width="15.7" height="18.3"/>
<path class="st2" d="M70.8,83.5l-5.4,14.7l-17-6.2l5.4-14.7L70.8,83.5 M71.1,83.5L53.7,77L48.2,92l17.3,6.4L71.1,83.5z"/>
<rect x="34.5" y="72.2" transform="matrix(0.3472 -0.9378 0.9378 0.3472 -48.5845 92.7848)" class="st1" width="15.7" height="18.3"/>
<path class="st2" d="M53.6,77.1l-5.4,14.7l-17-6.3l5.4-14.7L53.6,77.1 M53.7,77l-17.3-6.4L31,85.5L48.2,92L53.7,77z"/>
<rect x="17.2" y="65.7" transform="matrix(0.3472 -0.9378 0.9378 0.3472 -53.8468 72.3468)" class="st1" width="15.7" height="18.3"/>
<path class="st2" d="M36.2,70.7l-5.4,14.7l-17-6.2l5.4-14.7L36.2,70.7 M36.5,70.6l-17.3-6.4l-5.5,14.9L31,85.5L36.5,70.6z"/>
<rect x="80.9" y="106.3" transform="matrix(0.3472 -0.9378 0.9378 0.3472 -50.3287 158.6026)" class="st1" width="15.7" height="18.3"/>
<path class="st2" d="M99.9,111.3L94.5,126l-16.9-6.3L83,105L99.9,111.3 M100.2,111.2l-17.3-6.4l-5.6,14.9l17.3,6.4L100.2,111.2z"/>
<rect x="63.5" y="100" transform="matrix(0.3472 -0.9378 0.9378 0.3472 -55.691 138.1905)" class="st1" width="15.7" height="18.3"/>
<path class="st2" d="M82.6,104.9l-5.4,14.7l-17-6.2l5.4-14.7L82.6,104.9 M82.9,104.8l-17.4-6.4L60,113.3l17.3,6.4L82.9,104.8z"/>
<rect x="46.2" y="93.5" transform="matrix(0.3472 -0.9378 0.9378 0.3472 -60.9533 117.7525)" class="st1" width="15.7" height="18.3"/>
<path class="st2" d="M65.3,98.5l-5.4,14.7l-17-6.2l5.4-14.7L65.3,98.5 M65.5,98.4L48.2,92l-5.5,14.9l17.3,6.4L65.5,98.4z"/>
<rect x="28.9" y="87.1" transform="matrix(0.3472 -0.9378 0.9378 0.3472 -66.2157 97.3144)" class="st1" width="15.7" height="18.3"/>
<path class="st2" d="M48,92l-5.4,14.7l-17-6.2L31,85.8L48,92 M48.2,92L31,85.5l-5.5,14.9l17.3,6.4L48.2,92z"/>
<rect x="11.7" y="80.8" transform="matrix(0.3472 -0.9378 0.9378 0.3472 -71.5521 77.0024)" class="st1" width="15.7" height="18.3"/>
<path class="st2" d="M30.7,85.6l-5.4,14.7L8.2,94l5.4-14.7L30.7,85.6 M31,85.5l-17.3-6.4L8.2,94l17.3,6.4L31,85.5z"/>
<circle class="st3" cx="37.3" cy="22.6" r="1.1"/>
<circle class="st4" cx="39.7" cy="23.5" r="1.1"/>
<circle class="st5" cx="66.4" cy="49.8" r="1.1"/>
<circle class="st5" cx="68.9" cy="50.7" r="1.1"/>
<circle class="st5" cx="106.8" cy="48.3" r="1.1"/>
<circle class="st5" cx="109.2" cy="49.2" r="1.1"/>
<circle class="st5" cx="111.6" cy="50.1" r="1.1"/>
<circle class="st5" cx="114.1" cy="51" r="1.1"/>
<circle class="st5" cx="95.5" cy="78.5" r="1.1"/>
<circle class="st5" cx="98" cy="79.4" r="1.1"/>
<circle class="st5" cx="100.4" cy="80.3" r="1.1"/>
<circle class="st5" cx="102.9" cy="81.2" r="1.1"/>
<circle class="st4" cx="49.1" cy="43.4" r="1.1"/>
<circle class="st3" cx="26.4" cy="51.8" r="1.1"/>
<circle class="st6" cx="32.5" cy="88" r="1.1"/>
</svg>
